X: 2
T: Alta Regina
P: For Alta Regina: AB x 6 For Squilina: A x 21
M: 3/4
L: 1/8
K: F major
P: A
"C"G2F2G2 | "C"G4"F"A2 | "Eb"B4B2 | "Eb"B2G2A2 | "Eb"B2A2B2 | "F"A2G2F2 | \
"C"G4G2 | "C"G4G2 | "C"G2F2G2 | "C"G4"F"A2 | "Bb"B4B2 | "Bb"B2c2B2 | \
"F"A2G2F2 | "C"G2F2G2 | "F"A4A2 | "F"F2G2A2 || 
P: B
"Bb"B6 | "Bb"B2A2G2 | \
"F"A6 | "F"A2G2F2 | "C"G4"Dm"F2 | "Bb"F4"C"G2 | "F"A4A2 | "F"A6 :| 


